icons/linear-new-other-safe-shield-protect-check.svg

<svg xmlns="http://www.w3.org/2000/svg" width="32px" height="32px" viewBox="0 0 32 32" version="1.1">
    <title>linear-new-other-safe-shield-protect-check</title>
    <g id="linear-new-other-safe-shield-protect-check" stroke-width="1" fill-rule="evenodd">
        <path d="M16.2631174,1.53523618 L27.2631174,4.53523618 C27.6981787,4.65388925 28,5.04904894 28,5.5 L28,18.5 C28,23.3349214 24.0460418,27.2888797 16.3786328,30.425547 C16.1359711,30.5248177 15.8640289,30.5248177 15.6213672,30.425547 C7.95395821,27.2888797 4,23.3349214 4,18.5 L4,5.5 C4,5.04904894 4.30182133,4.65388925 4.73688259,4.53523618 L15.7368826,1.53523618 C15.9091484,1.48825461 16.0908516,1.48825461 16.2631174,1.53523618 Z M16,3.536 L6,6.263 L6,18.5 C6,22.1814807 9.11952313,25.4453756 15.571877,28.2352134 L16,28.417 L16.0289148,28.405427 C22.6173914,25.634962 25.8686841,22.3892874 25.9961004,18.7248745 L26,18.5 L26,6.263 L16,3.536 Z M22.7071068,10.7928932 C23.0976311,11.1834175 23.0976311,11.8165825 22.7071068,12.2071068 L15.2071068,19.7071068 C14.8165825,20.0976311 14.1834175,20.0976311 13.7928932,19.7071068 L9.79289322,15.7071068 C9.40236893,15.3165825 9.40236893,14.6834175 9.79289322,14.2928932 C10.1834175,13.9023689 10.8165825,13.9023689 11.2071068,14.2928932 L14.5,17.585 L21.2928932,10.7928932 C21.6834175,10.4023689 22.3165825,10.4023689 22.7071068,10.7928932 Z" id="&#24418;&#29366;" fill-rule="nonzero" />
    </g>
</svg>

<svg xmlns="http://www.w3.org/2000/svg" viewBox="0 0 32 32"><path fill="currentColor" d="m16.263 1.535 11 3A1 1 0 0 1 28 5.5v13c0 4.835-3.954 8.789-11.621 11.926a1 1 0 0 1-.758 0C7.954 27.289 4 23.335 4 18.5v-13a1 1 0 0 1 .737-.965l11-3a1 1 0 0 1 .526 0M16 3.536 6 6.263V18.5c0 3.681 3.12 6.945 9.572 9.735l.428.182.029-.012c6.588-2.77 9.84-6.016 9.967-9.68L26 18.5V6.263zm6.707 7.257a1 1 0 0 1 0 1.414l-7.5 7.5a1 1 0 0 1-1.414 0l-4-4a1 1 0 0 1 1.414-1.414l3.293 3.292 6.793-6.792a1 1 0 0 1 1.414 0"/></svg>
